flaticon/transportation/truck-14.svg

<svg xmlns="http://www.w3.org/2000/svg" width="32" height="32" viewBox="0 0 24 24">
    <path d="M 20.832031 3.960938 L 15.484375 3.960938 L 15.484375 2.378906 L 0.5625 7.609375 C 0.226562 7.730469 0 8.046875 0 8.40625 L 0 15.457031 L 24 15.457031 L 24 8.429688 Z M 14.464844 14.4375 L 1.019531 14.4375 L 1.019531 8.53125 L 3.871094 7.535156 L 2.878906 10.261719 L 3.839844 10.609375 L 5.117188 7.097656 L 7.554688 6.242188 L 6.550781 9.007812 L 7.511719 9.355469 L 8.800781 5.804688 L 11.242188 4.949219 L 10.222656 7.753906 L 11.183594 8.101562 L 12.488281 4.511719 L 14.464844 3.820312 Z M 22.980469 8.753906 L 22.980469 9.925781 L 17.675781 9.925781 L 17.675781 4.980469 L 20.304688 4.980469 Z M 15.484375 14.4375 L 15.484375 4.980469 L 16.65625 4.980469 L 16.65625 10.945312 L 22.980469 10.945312 L 22.980469 14.4375 Z M 15.484375 14.4375"/>
    <path d="M16.183594 12.136719L17.515625 12.136719 17.515625 13.160156 16.183594 13.160156zM5.355469 15.898438C3.777344 15.898438 2.492188 17.179688 2.492188 18.757812 2.492188 20.339844 3.777344 21.621094 5.355469 21.621094 6.933594 21.621094 8.21875 20.339844 8.21875 18.757812 8.21875 17.179688 6.933594 15.898438 5.355469 15.898438zM5.355469 20.601562C4.339844 20.601562 3.511719 19.773438 3.511719 18.757812 3.511719 17.746094 4.339844 16.917969 5.355469 16.917969 6.371094 16.917969 7.195312 17.746094 7.195312 18.757812 7.195312 19.773438 6.371094 20.601562 5.355469 20.601562zM18.539062 15.898438C16.957031 15.898438 15.675781 17.179688 15.675781 18.757812 15.675781 20.339844 16.957031 21.621094 18.539062 21.621094 20.117188 21.621094 21.398438 20.339844 21.398438 18.757812 21.398438 17.179688 20.117188 15.898438 18.539062 15.898438zM18.539062 20.601562C17.523438 20.601562 16.695312 19.773438 16.695312 18.757812 16.695312 17.746094 17.523438 16.917969 18.539062 16.917969 19.550781 16.917969 20.378906 17.746094 20.378906 18.757812 20.378906 19.773438 19.550781 20.601562 18.539062 20.601562zM18.539062 20.601562"/>
</svg>

<svg xmlns="http://www.w3.org/2000/svg" width="32" height="32" viewBox="0 0 24 24">
    <path d="M20.832 3.96h-5.348V2.38L.563 7.609A.847.847 0 0 0 0 8.406v7.051h24V8.43zm-6.367 10.477H1.02V8.532l2.851-.996-.992 2.727.96.347 1.278-3.511 2.438-.856L6.55 9.008l.96.347 1.29-3.55 2.441-.856-1.02 2.805.962.348 1.304-3.59 1.977-.692zm8.515-5.683v1.172h-5.304V4.98h2.629zm-7.496 5.684V4.98h1.172v5.965h6.324v3.492zm0 0"/>
    <path d="M16.184 12.137h1.332v1.023h-1.332zm0 0M5.355 15.898a2.864 2.864 0 0 0-2.863 2.86 2.865 2.865 0 0 0 2.863 2.863 2.865 2.865 0 0 0 2.864-2.863 2.864 2.864 0 0 0-2.864-2.86zm0 4.704a1.847 1.847 0 0 1-1.843-1.844c0-1.012.828-1.84 1.843-1.84a1.843 1.843 0 0 1 0 3.684zm0 0M18.54 15.898a2.862 2.862 0 1 0-.004 5.724 2.862 2.862 0 0 0 .003-5.724zm0 4.704a1.847 1.847 0 0 1-1.845-1.844c0-1.012.828-1.84 1.844-1.84 1.012 0 1.84.828 1.84 1.84a1.846 1.846 0 0 1-1.84 1.844zm0 0"/>
</svg>
